X: 16481
T: Haggis Geordie's
R: jig
M: 6/8
K: Eminor
G/A/|BEG BeB|GBe EBA|GDG GBG|dgc ABc|
Bdg d/c/B/A/G|ABG gbd|egd Be^d|eBG E2:|
|:B/c/|dBG gBG|gbd Bgf|eE/F/G/A/ Bef|gb/a/g/f/ egd|
Bgd BgG|ABc def|B>AG AB/A/G/F/|GBe E2:|

